build/img/icon-confidentiality.svg

<svg width="36" height="35" fill="none" xmlns="http://www.w3.org/2000/svg">
<path d="M18 12.7582C17.6119 12.7582 17.2969 13.0752 17.2969 13.4663C17.2969 13.8571 17.6119 14.1743 18 14.1743C18.3881 14.1743 18.7031 13.8571 18.7031 13.4663C18.7031 13.0752 18.3881 12.7582 18 12.7582Z" fill="#00B2FF"/>
<path d="M33.8906 17.0066H31.1548C29.7125 12.8595 27.6199 5.58774 23.8291 3.52967C21.9331 2.5016 20.141 3.21962 19.4669 4.67833C19.1802 5.29844 18.6075 5.62453 18 5.62453C17.3842 5.62453 16.8162 5.29124 16.5331 4.67888C15.8829 3.26996 14.1336 2.48611 12.3041 3.38031C8.45261 5.26386 6.29874 12.8282 4.84525 17.0066H2.10938C0.944 17.0066 0 17.9569 0 19.1308C0 20.3018 0.946198 21.2549 2.10938 21.2549H33.8906C35.056 21.2549 36 20.3043 36 19.1308C36 17.9594 35.0538 17.0066 33.8906 17.0066ZM7.31525 14.1743H15.1875C15.5759 14.1743 15.8906 13.8571 15.8906 13.4663C15.8906 13.0752 15.5759 12.7582 15.1875 12.7582H7.80688C9.92642 6.86225 11.9064 5.14908 12.9183 4.65427C14.0221 4.11493 14.9307 4.56631 15.2581 5.27603C15.7739 6.39178 16.8409 7.04065 18 7.04065C19.1618 7.04065 20.2275 6.38929 20.7419 5.27603C21.0789 4.54612 21.9922 4.14203 23.1619 4.77624C24.1784 5.32831 26.1524 7.09845 28.1928 12.7582H20.8125C20.4241 12.7582 20.1094 13.0752 20.1094 13.4663C20.1094 13.8574 20.4241 14.1743 20.8125 14.1743H28.685C29.0404 15.2066 29.4096 16.2717 29.665 17.0066H6.33527C6.58987 16.2736 6.95819 15.211 7.31525 14.1743ZM33.8906 19.8388H2.10938C1.72156 19.8388 1.40625 19.521 1.40625 19.1308C1.40625 18.7397 1.72101 18.4227 2.10938 18.4227H33.8906C34.2784 18.4227 34.5938 18.7402 34.5938 19.1308C34.5938 19.5216 34.2787 19.8388 33.8906 19.8388Z" fill="#00B2FF"/>
<path d="M16.5938 24.0873H5.34375C4.95538 24.0873 4.64062 24.4042 4.64062 24.7953V27.6275C4.64062 31.1413 7.47949 34.0001 10.9688 34.0001C13.6126 34.0001 15.9527 32.3624 16.8835 29.8953C17.5905 29.5706 18.4095 29.5706 19.1165 29.8953C20.0473 32.3624 22.3874 33.9998 25.0312 33.9998C28.5205 33.9998 31.3594 31.1413 31.3594 27.6273V24.795C31.3594 24.4039 31.0446 24.087 30.6562 24.087H19.4062C19.0179 24.087 18.7031 24.4039 18.7031 24.795V25.5031H17.2969V24.795C17.2969 24.4042 16.9821 24.0873 16.5938 24.0873ZM10.9688 32.584C8.25485 32.584 6.04688 30.3605 6.04688 27.6275V25.5034H15.8906V27.6275C15.8906 30.3677 13.6945 32.584 10.9688 32.584ZM20.1094 25.5034H29.9531V27.6275C29.9531 30.3605 27.7451 32.584 25.0312 32.584C22.2987 32.584 20.1094 30.361 20.1094 27.6275V25.5034ZM18.7031 26.9195V27.6275C18.7031 27.8538 18.716 28.0792 18.7394 28.303C18.2508 28.2131 17.7492 28.2131 17.2606 28.303C17.284 28.0792 17.2969 27.8538 17.2969 27.6275V26.9195H18.7031Z" fill="#00B2FF"/>
<path d="M10.9688 29.7516C9.80557 29.7516 8.85938 28.7985 8.85938 27.6274C8.85938 27.2363 8.54462 26.9194 8.15625 26.9194C7.76788 26.9194 7.45312 27.2363 7.45312 27.6274C7.45312 29.5793 9.03021 31.1677 10.9688 31.1677C11.3571 31.1677 11.6719 30.8505 11.6719 30.4597C11.6719 30.0686 11.3571 29.7516 10.9688 29.7516Z" fill="#00B2FF"/>
<path d="M25.0312 31.1677C26.9698 31.1677 28.5469 29.5793 28.5469 27.6274C28.5469 27.2363 28.2321 26.9194 27.8438 26.9194C27.4554 26.9194 27.1406 27.2363 27.1406 27.6274C27.1406 28.7985 26.1944 29.7516 25.0312 29.7516C24.6429 29.7516 24.3281 30.0686 24.3281 30.4597C24.3281 30.8505 24.6429 31.1677 25.0312 31.1677Z" fill="#00B2FF"/>
</svg>

<svg width="36" height="35" fill="none" xmlns="http://www.w3.org/2000/svg"><path d="M18 12.758a.706.706 0 00-.703.708c0 .391.315.708.703.708a.706.706 0 00.703-.708.706.706 0 00-.703-.708z" fill="#00B2FF"/><path d="M33.89 17.007h-2.735c-1.443-4.148-3.535-11.42-7.326-13.477-1.896-1.028-3.688-.31-4.362 1.148A1.59 1.59 0 0118 5.625a1.59 1.59 0 01-1.467-.946c-.65-1.409-2.4-2.193-4.229-1.299C8.453 5.264 6.3 12.828 4.845 17.007H2.11c-1.166 0-2.11.95-2.11 2.123a2.12 2.12 0 002.11 2.124h31.78c1.166 0 2.11-.95 2.11-2.124a2.12 2.12 0 00-2.11-2.124zM7.316 14.174h7.872a.706.706 0 00.704-.708.706.706 0 00-.704-.708h-7.38c2.12-5.896 4.1-7.609 5.111-8.104 1.104-.54 2.013-.088 2.34.622A2.996 2.996 0 0018 7.041a2.996 2.996 0 002.742-1.765c.337-.73 1.25-1.134 2.42-.5 1.016.552 2.99 2.322 5.03 7.982h-7.38a.706.706 0 00-.703.708c0 .391.315.708.703.708h7.873c.355 1.033.725 2.098.98 2.833H6.335c.255-.733.623-1.796.98-2.833zm26.576 5.665H2.109a.706.706 0 01-.703-.708c0-.391.315-.708.703-.708h31.782c.387 0 .703.317.703.708 0 .39-.315.708-.703.708zm-17.298 4.248H5.344a.705.705 0 00-.703.708v2.832C4.64 31.142 7.479 34 10.969 34a6.316 6.316 0 005.915-4.105 2.681 2.681 0 012.232 0A6.315 6.315 0 0025.031 34c3.49 0 6.328-2.859 6.328-6.373v-2.832a.706.706 0 00-.703-.708h-11.25a.706.706 0 00-.703.708v.708h-1.406v-.708a.705.705 0 00-.703-.708zm-5.625 8.497c-2.714 0-4.922-2.224-4.922-4.957v-2.124h9.844v2.125c0 2.74-2.197 4.956-4.922 4.956zm9.14-7.08h9.844v2.123c0 2.733-2.208 4.957-4.922 4.957-2.732 0-4.922-2.223-4.922-4.957v-2.124zm-1.406 1.415v.709c0 .226.013.451.036.675a4.08 4.08 0 00-1.478 0 6.62 6.62 0 00.036-.675v-.709h1.406z" fill="#00B2FF"/><path d="M10.969 29.752a2.12 2.12 0 01-2.11-2.125.705.705 0 00-.703-.708.705.705 0 00-.703.708c0 1.952 1.577 3.54 3.516 3.54a.706.706 0 00.703-.707.706.706 0 00-.703-.708zm14.062 1.416c1.939 0 3.516-1.589 3.516-3.54a.706.706 0 00-.703-.709.706.706 0 00-.703.708 2.12 2.12 0 01-2.11 2.125.706.706 0 00-.703.708c0 .39.315.708.703.708z" fill="#00B2FF"/></svg>
